src/assets/images/components/section/home/SectionHomeMain/illustration-identity.svg

<svg fill="none" height="170" viewBox="0 0 162 170" width="162" xmlns="http://www.w3.org/2000/svg" xmlns:xlink="http://www.w3.org/1999/xlink"><filter id="a" color-interpolation-filters="sRGB" filterUnits="userSpaceOnUse" height="101.158" width="101.158" x="30.4211" y="12.4211"><feFlood flood-opacity="0" result="BackgroundImageFix"/><feColorMatrix in="SourceAlpha" result="hardAlpha" type="matrix" values="0 0 0 0 0 0 0 0 0 0 0 0 0 0 0 0 0 0 127 0"/><feMorphology in="SourceAlpha" operator="erode" radius="4.42105" result="effect1_dropShadow_946_2473"/><feOffset dy="12"/><feGaussianBlur stdDeviation="10"/><feComposite in2="hardAlpha" operator="out"/><feColorMatrix type="matrix" values="0 0 0 0 0.211765 0 0 0 0 0.811765 0 0 0 0 0.462745 0 0 0 0.4 0"/><feBlend in2="BackgroundImageFix" mode="normal" result="effect1_dropShadow_946_2473"/><feBlend in="SourceGraphic" in2="effect1_dropShadow_946_2473" mode="normal" result="shape"/></filter><filter id="b" color-interpolation-filters="sRGB" filterUnits="userSpaceOnUse" height="73.3266" width="66.9922" x="47.4727" y="15.3628"><feFlood flood-opacity="0" result="BackgroundImageFix"/><feBlend in="SourceGraphic" in2="BackgroundImageFix" mode="normal" result="shape"/><feColorMatrix in="SourceAlpha" result="hardAlpha" type="matrix" values="0 0 0 0 0 0 0 0 0 0 0 0 0 0 0 0 0 0 127 0"/><feOffset dy="6.33309"/><feGaussianBlur stdDeviation="2.11103"/><feComposite in2="hardAlpha" k2="-1" k3="1" operator="arithmetic"/><feColorMatrix type="matrix" values="0 0 0 0 1 0 0 0 0 1 0 0 0 0 1 0 0 0 0.25 0"/><feBlend in2="shape" mode="normal" result="effect1_innerShadow_946_2473"/><feColorMatrix in="SourceAlpha" result="hardAlpha" type="matrix" values="0 0 0 0 0 0 0 0 0 0 0 0 0 0 0 0 0 0 127 0"/><feOffset dy="-2.11103"/><feGaussianBlur stdDeviation="2.11103"/><feComposite in2="hardAlpha" k2="-1" k3="1" operator="arithmetic"/><feColorMatrix type="matrix" values="0 0 0 0 0.09375 0 0 0 0 0.5625 0 0 0 0 0.291667 0 0 0 1 0"/><feBlend in2="effect1_innerShadow_946_2473" mode="normal" result="effect2_innerShadow_946_2473"/></filter><filter id="c" color-interpolation-filters="sRGB" filterUnits="userSpaceOnUse" height="44.4061" width="44.8765" x="58.4621" y="33.6725"><feFlood flood-opacity="0" result="BackgroundImageFix"/><feColorMatrix in="SourceAlpha" result="hardAlpha" type="matrix" values="0 0 0 0 0 0 0 0 0 0 0 0 0 0 0 0 0 0 127 0"/><feOffset dy="4.22206"/><feGaussianBlur stdDeviation="4.22206"/><feComposite in2="hardAlpha" operator="out"/><feColorMatrix type="matrix" values="0 0 0 0 0 0 0 0 0 0 0 0 0 0 0 0 0 0 0.17 0"/><feBlend in2="BackgroundImageFix" mode="normal" result="effect1_dropShadow_946_2473"/><feBlend in="SourceGraphic" in2="effect1_dropShadow_946_2473" mode="normal" result="shape"/><feColorMatrix in="SourceAlpha" result="hardAlpha" type="matrix" values="0 0 0 0 0 0 0 0 0 0 0 0 0 0 0 0 0 0 127 0"/><feOffset dy="-2.11103"/><feGaussianBlur stdDeviation="1.05551"/><feComposite in2="hardAlpha" k2="-1" k3="1" operator="arithmetic"/><feColorMatrix type="matrix" values="0 0 0 0 0 0 0 0 0 0 0 0 0 0 0 0 0 0 0.19 0"/><feBlend in2="shape" mode="normal" result="effect2_innerShadow_946_2473"/></filter><linearGradient id="d" gradientUnits="userSpaceOnUse" x1="81" x2="81" y1="0" y2="170"><stop offset="0" stop-color="#f6f7fb"/><stop offset="1" stop-color="#f6f7fb" stop-opacity=".95"/></linearGradient><linearGradient id="e" gradientUnits="userSpaceOnUse" x1="80.9684" x2="80.9684" y1="17.4739" y2="84.4674"><stop offset="0" stop-color="#36cf76"/><stop offset="1" stop-color="#27ae60"/></linearGradient><linearGradient id="f" gradientUnits="userSpaceOnUse" x1="80.9684" x2="80.9684" y1="17.4739" y2="84.4674"><stop offset="0" stop-color="#fff"/><stop offset="1" stop-color="#fff" stop-opacity="0"/></linearGradient><linearGradient id="g" gradientUnits="userSpaceOnUse" x1="81" x2="81" y1="0" y2="170"><stop offset="0" stop-color="#81899b"/><stop offset="1" stop-color="#81899b" stop-opacity=".49"/></linearGradient><rect fill="url(#d)" height="170" rx="32" width="162"/><g filter="url(#a)"><g filter="url(#b)"><path d="m63.2514 76.6001h6.2836c.5543 0 .9569.16 1.37.573l4.4589 4.4298c3.8023 3.8315 7.3828 3.8072 11.185 0l4.459-4.4298c.437-.413.8155-.573 1.394-.573h6.2595c5.3966 0 7.9346-2.5237 7.9346-7.9395v-6.2595c0-.573.165-.957.578-1.394l4.43-4.4537c3.826-3.802 3.802-7.3828 0-11.1903l-4.43-4.4536c-.418-.4131-.578-.8156-.578-1.3699v-6.2836c0-5.3731-2.524-7.9342-7.9346-7.9342h-6.2595c-.5785 0-.9622-.1412-1.394-.5543l-4.459-4.4297c-3.8075-3.8314-7.3827-3.8074-11.185.0053l-4.4589 4.4244c-.4078.4131-.8157.5543-1.37.5543h-6.2836c-5.397 0-7.9341 2.5078-7.9341 7.9342v6.2836c0 .5543-.1412.9621-.5543 1.3699l-4.4297 4.4536c-3.8262 3.8075-3.8022 7.3883 0 11.1903l4.4297 4.4537c.4131.437.5543.821.5543 1.394v6.2595c0 5.397 2.5424 7.9395 7.9341 7.9395z" fill="url(#e)"/></g><path d="m76.1131 80.8594-.0053-.0053-4.4566-4.4274c-.0004-.0005-.0009-.0009-.0013-.0014-.2812-.2809-.5973-.5133-.9736-.6689-.3772-.1561-.7593-.2118-1.1413-.2118h-6.2836c-2.5487 0-4.2083-.6018-5.2424-1.6365-1.0343-1.0348-1.6362-2.6958-1.6362-5.2475v-6.2595c0-.3746-.0463-.7529-.1948-1.1325-.1488-.3803-.3749-.6977-.648-.9865l-.0092-.0098-.0094-.0095-4.4297-4.4538-.0021-.002c-1.7986-1.7986-2.5491-3.392-2.5514-4.8484-.0024-1.4547.7413-3.0478 2.5496-4.8473l.0039-.0038 4.4266-4.4506c.2911-.2882.5206-.6118.6697-.9929.148-.3783.1948-.7574.1948-1.1244v-6.2836c0-2.5684.6016-4.2261 1.633-5.2546 1.0319-1.0291 2.6904-1.6241 5.2456-1.6241h6.2836c.3671 0 .7461-.0468 1.1245-.1948.3809-.149.7043-.3783.9924-.6692l4.4555-4.421.0039-.0039c1.7993-1.8043 3.3912-2.5561 4.8452-2.559 1.4523-.0029 3.0437.7411 4.8437 2.5524l.0048.0048 4.459 4.4297.007.007.0072.0069c.2875.275.6049.5028.9871.6523.3805.1489.7606.1948 1.1366.1948h6.2595c2.5576 0 4.2166.606 5.2486 1.6417 1.032 1.0364 1.63 2.6966 1.63 5.237v6.2836c0 .3818.056.7651.214 1.1437.156.3768.391.6928.675.9737.001.0011.002.0023.003.0035l4.423 4.447.002.0014c1.799 1.8016 2.549 3.3965 2.552 4.8531.002 1.4546-.741 3.0461-2.549 4.8427l-.005.0043-4.429 4.4538-.01.0095-.009.0098c-.264.2794-.494.5896-.651.9638-.158.3788-.216.7623-.216 1.1552v6.2595c0 2.5625-.601 4.2224-1.634 5.254-1.032 1.0318-2.691 1.63-5.2446 1.63h-6.2595c-.3907 0-.7737.0547-1.1534.2118-.376.1554-.6861.3854-.9656.6496l-.0096.009-.0093.0093-4.459 4.4298-.0029.0029c-1.799 1.8013-3.3923 2.5525-4.8474 2.5549-1.4533.0024-3.0446-.7418-4.8416-2.5525z" stroke="url(#f)" stroke-opacity=".5" stroke-width="2.11103"/><g filter="url(#c)"><path d="m77.7044 65.4124c-1.1067 0-2.0063-.4545-2.8258-1.517l-7.1796-8.7332c-.5238-.6705-.7928-1.3705-.7928-2.089 0-1.5163 1.1836-2.7268 2.6948-2.7268.9046 0 1.6072.335 2.3607 1.3018l5.6467 7.1697 12.109-19.3964c.641-1.0242 1.4712-1.527 2.3942-1.527 1.4338 0 2.7825 1.0266 2.7825 2.5377 0 .7002-.3545 1.4162-.764 2.0655l-13.7114 21.3767c-.668 1.0008-1.6178 1.538-2.7143 1.538z" fill="#fff"/></g></g><path d="m45.5819 120h2.3938v-14.57h-2.3938zm9.1087.208c1.2697 0 2.3521-.479 3.0598-1.29v1.082h2.2897v-14.987h-2.2897v6.099c-.7077-.812-1.7901-1.311-3.0598-1.311-2.7059 0-4.8083 2.289-4.8083 5.224 0 2.914 2.1024 5.183 4.8083 5.183zm.3747-2.165c-1.6652 0-2.8309-1.249-2.8309-3.039s1.1657-3.039 2.8309-3.039c1.686 0 2.8308 1.249 2.8308 3.039s-1.1448 3.039-2.8308 3.039zm11.8453 2.165c1.5611 0 2.9974-.583 3.9757-1.727l-1.4571-1.478c-.6036.707-1.5195 1.061-2.5394 1.061-1.4987 0-2.581-.832-2.9141-2.206h7.4518c.0832-.416.1249-.75.1249-1.083 0-2.872-1.9983-4.974-4.7667-4.974-2.8932 0-5.1621 2.268-5.1621 5.203 0 2.977 2.2897 5.204 5.287 5.204zm-.1665-8.305c1.3946 0 2.2688.749 2.5602 2.081h-5.3286c.3331-1.29 1.353-2.081 2.7684-2.081zm6.3315 8.097h2.2896v-5.766c0-1.332.9575-2.289 2.2897-2.289s2.2688.957 2.2688 2.289v5.766h2.2897v-6.265c0-1.957-1.6236-3.934-3.8716-3.934-1.2281 0-2.2897.499-2.9766 1.353v-1.145h-2.2896zm12.5498 0h2.2897v-7.91h2.3937v-2.081h-2.3937v-4.163h-2.2897v4.163h-2.3937v2.081h2.3937zm7.2005-11.823c.791 0 1.353-.604 1.353-1.374s-.562-1.373-1.353-1.373c-.7909 0-1.353.603-1.353 1.373s.5621 1.374 1.353 1.374zm-1.1448 11.823h2.2896v-9.991h-2.2896zm6.065 0h2.2899v-7.91h2.393v-2.081h-2.393v-4.163h-2.2899v4.163h-2.3938v2.081h2.3938zm6.2849 4.163h2.539l1.853-4.059 4.641-10.095h-2.539l-2.706 6.515-2.56-6.515h-2.519l3.789 8.992zm-53.6408 23.837h1.6652l5.9323-14.57h-2.5603l-4.1838 10.636-4.1422-10.636h-2.6018zm11.7102.208c1.5611 0 2.9974-.583 3.9757-1.727l-1.4571-1.478c-.6036.707-1.5195 1.061-2.5394 1.061-1.4987 0-2.5811-.832-2.9141-2.206h7.4518c.0832-.416.1249-.75.1249-1.083 0-2.872-1.9983-4.974-4.7667-4.974-2.8933 0-5.1621 2.268-5.1621 5.203 0 2.977 2.2897 5.204 5.287 5.204zm-.1665-8.305c1.3946 0 2.2688.749 2.5602 2.081h-5.3286c.333-1.29 1.353-2.081 2.7684-2.081zm6.3315 8.097h2.2896v-5.558c0-1.706.9159-2.497 2.2064-2.497.5828 0 .9991.166 1.3738.541l1.4987-1.541c-.6869-.79-1.4779-1.144-2.477-1.144-1.1656 0-2.0399.458-2.6019 1.249v-1.041h-2.2896zm9.3298-11.823c.791 0 1.353-.604 1.353-1.374s-.562-1.373-1.353-1.373-1.353.603-1.353 1.373.562 1.374 1.353 1.374zm-1.1448 11.823h2.2896v-9.991h-2.2896zm5.9192 0h2.2897v-7.91h3.7467v7.91h2.2896v-9.991h-6.0363v-1.749c0-.791.4371-1.311 1.2489-1.311.4163 0 .7285.125.9991.354l1.4987-1.499c-.6869-.645-1.4571-.999-2.4978-.999-2.1023 0-3.5386 1.499-3.5386 3.476v1.728h-2.3937v2.081h2.3937zm7.1812-10.865c.791 0 1.353-.604 1.353-1.374s-.562-1.374-1.353-1.374-1.353.604-1.353 1.374.562 1.374 1.353 1.374zm8.0318 11.073c1.5612 0 2.9974-.583 3.9754-1.727l-1.457-1.478c-.6034.707-1.5193 1.061-2.5392 1.061-1.4987 0-2.581-.832-2.9141-2.206h7.4513c.084-.416.125-.75.125-1.083 0-2.872-1.998-4.974-4.7663-4.974-2.8932 0-5.1621 2.268-5.1621 5.203 0 2.977 2.2897 5.204 5.287 5.204zm-.1665-8.305c1.3946 0 2.2688.749 2.5603 2.081h-5.3287c.3331-1.29 1.353-2.081 2.7684-2.081zm10.5149 8.305c1.27 0 2.353-.479 3.06-1.29v1.082h2.29v-14.987h-2.29v6.099c-.707-.812-1.79-1.311-3.06-1.311-2.706 0-4.808 2.289-4.808 5.224 0 2.914 2.102 5.183 4.808 5.183zm.375-2.165c-1.665 0-2.831-1.249-2.831-3.039s1.166-3.039 2.831-3.039c1.686 0 2.831 1.249 2.831 3.039s-1.145 3.039-2.831 3.039z" fill="#121f3e"/><rect height="168.5" rx="31.25" stroke="url(#g)" stroke-opacity=".2" stroke-width="1.5" width="160.5" x=".75" y=".75"/></svg>

<svg width="162" height="170" viewBox="0 0 162 170" fill="none" xmlns="http://www.w3.org/2000/svg">
<rect width="162" height="170" rx="32" fill="url(#paint0_linear_946_2473)"/>
<g filter="url(#filter0_d_946_2473)">
<g filter="url(#filter1_ii_946_2473)">
<path d="M63.2514 76.6001H69.535C70.0893 76.6001 70.4919 76.7601 70.905 77.1731L75.3639 81.6029C79.1662 85.4344 82.7467 85.4101 86.5489 81.6029L91.0079 77.1731C91.4449 76.7601 91.8234 76.6001 92.4019 76.6001H98.6614C104.058 76.6001 106.596 74.0764 106.596 68.6606V62.4011C106.596 61.8281 106.761 61.4441 107.174 61.0071L111.604 56.5534C115.43 52.7514 115.406 49.1706 111.604 45.3631L107.174 40.9095C106.756 40.4964 106.596 40.0939 106.596 39.5396V33.256C106.596 27.8829 104.072 25.3218 98.6614 25.3218H92.4019C91.8234 25.3218 91.4397 25.1806 91.0079 24.7675L86.5489 20.3378C82.7414 16.5064 79.1662 16.5304 75.3639 20.3431L70.905 24.7675C70.4972 25.1806 70.0893 25.3218 69.535 25.3218H63.2514C57.8544 25.3218 55.3173 27.8296 55.3173 33.256V39.5396C55.3173 40.0939 55.1761 40.5017 54.763 40.9095L50.3333 45.3631C46.5071 49.1706 46.5311 52.7514 50.3333 56.5534L54.763 61.0071C55.1761 61.4441 55.3173 61.8281 55.3173 62.4011V68.6606C55.3173 74.0576 57.8597 76.6001 63.2514 76.6001Z" fill="url(#paint1_linear_946_2473)"/>
</g>
<path d="M76.1131 80.8594L76.1078 80.8541L71.6512 76.4267C71.6508 76.4262 71.6503 76.4258 71.6499 76.4253C71.3687 76.1444 71.0526 75.912 70.6763 75.7564C70.2991 75.6003 69.917 75.5446 69.535 75.5446H63.2514C60.7027 75.5446 59.0431 74.9428 58.009 73.9081C56.9747 72.8733 56.3728 71.2123 56.3728 68.6606V62.4011C56.3728 62.0265 56.3265 61.6482 56.178 61.2686C56.0292 60.8883 55.8031 60.5709 55.53 60.2821L55.5208 60.2723L55.5114 60.2628L51.0817 55.809L51.0796 55.807C49.281 54.0084 48.5305 52.415 48.5282 50.9586C48.5258 49.5039 49.2695 47.9108 51.0778 46.1113L51.0817 46.1075L55.5083 41.6569C55.7994 41.3687 56.0289 41.0451 56.178 40.664C56.326 40.2857 56.3728 39.9066 56.3728 39.5396V33.256C56.3728 30.6876 56.9744 29.0299 58.0058 28.0014C59.0377 26.9723 60.6962 26.3773 63.2514 26.3773H69.535C69.9021 26.3773 70.2811 26.3305 70.6595 26.1825C71.0404 26.0335 71.3638 25.8042 71.6519 25.5133L76.1074 21.0923L76.1113 21.0884C77.9106 19.2841 79.5025 18.5323 80.9565 18.5294C82.4088 18.5265 84.0002 19.2705 85.8002 21.0818L85.805 21.0866L90.264 25.5163L90.271 25.5233L90.2782 25.5302C90.5657 25.8052 90.8831 26.033 91.2653 26.1825C91.6458 26.3314 92.0259 26.3773 92.4019 26.3773H98.6614C101.219 26.3773 102.878 26.9833 103.91 28.019C104.942 29.0554 105.54 30.7156 105.54 33.256V39.5396C105.54 39.9214 105.596 40.3047 105.754 40.6833C105.91 41.0601 106.145 41.3761 106.429 41.657C106.43 41.6581 106.431 41.6593 106.432 41.6605L110.855 46.1075L110.857 46.1089C112.656 47.9105 113.406 49.5054 113.409 50.962C113.411 52.4166 112.668 54.0081 110.86 55.8047L110.855 55.809L106.426 60.2628L106.416 60.2723L106.407 60.2821C106.143 60.5615 105.913 60.8717 105.756 61.2459C105.598 61.6247 105.54 62.0082 105.54 62.4011V68.6606C105.54 71.2231 104.939 72.883 103.906 73.9146C102.874 74.9464 101.215 75.5446 98.6614 75.5446H92.4019C92.0112 75.5446 91.6282 75.5993 91.2485 75.7564C90.8725 75.9118 90.5624 76.1418 90.2829 76.406L90.2733 76.415L90.264 76.4243L85.805 80.8541L85.8021 80.857C84.0031 82.6583 82.4098 83.4095 80.9547 83.4119C79.5014 83.4143 77.9101 82.6701 76.1131 80.8594Z" stroke="url(#paint2_linear_946_2473)" stroke-opacity="0.5" stroke-width="2.11103"/>
<g filter="url(#filter2_di_946_2473)">
<path d="M77.7044 65.4124C76.5977 65.4124 75.6981 64.9579 74.8786 63.8954L67.699 55.1622C67.1752 54.4917 66.9062 53.7917 66.9062 53.0732C66.9062 51.5569 68.0898 50.3464 69.601 50.3464C70.5056 50.3464 71.2082 50.6814 71.9617 51.6482L77.6084 58.8179L89.7174 39.4215C90.3584 38.3973 91.1886 37.8945 92.1116 37.8945C93.5454 37.8945 94.8941 38.9211 94.8941 40.4322C94.8941 41.1324 94.5396 41.8484 94.1301 42.4977L80.4187 63.8744C79.7507 64.8752 78.8009 65.4124 77.7044 65.4124Z" fill="white"/>
</g>
</g>
<path d="M45.5819 120H47.9757V105.43H45.5819V120ZM54.6906 120.208C55.9603 120.208 57.0427 119.729 57.7504 118.918V120H60.0401V105.013H57.7504V111.112C57.0427 110.3 55.9603 109.801 54.6906 109.801C51.9847 109.801 49.8823 112.09 49.8823 115.025C49.8823 117.939 51.9847 120.208 54.6906 120.208ZM55.0653 118.043C53.4001 118.043 52.2344 116.794 52.2344 115.004C52.2344 113.214 53.4001 111.965 55.0653 111.965C56.7513 111.965 57.8961 113.214 57.8961 115.004C57.8961 116.794 56.7513 118.043 55.0653 118.043ZM66.9106 120.208C68.4717 120.208 69.908 119.625 70.8863 118.481L69.4292 117.003C68.8256 117.71 67.9097 118.064 66.8898 118.064C65.3911 118.064 64.3088 117.232 63.9757 115.858H71.4275C71.5107 115.442 71.5524 115.108 71.5524 114.775C71.5524 111.903 69.5541 109.801 66.7857 109.801C63.8925 109.801 61.6236 112.069 61.6236 115.004C61.6236 117.981 63.9133 120.208 66.9106 120.208ZM66.7441 111.903C68.1387 111.903 69.0129 112.652 69.3043 113.984H63.9757C64.3088 112.694 65.3287 111.903 66.7441 111.903ZM73.0756 120H75.3652V114.234C75.3652 112.902 76.3227 111.945 77.6549 111.945C78.9871 111.945 79.9237 112.902 79.9237 114.234V120H82.2134V113.735C82.2134 111.778 80.5898 109.801 78.3418 109.801C77.1137 109.801 76.0521 110.3 75.3652 111.154V110.009H73.0756V120ZM85.6254 120H87.9151V112.09H90.3088V110.009H87.9151V105.846H85.6254V110.009H83.2317V112.09H85.6254V120ZM92.8259 108.177C93.6169 108.177 94.1789 107.573 94.1789 106.803C94.1789 106.033 93.6169 105.43 92.8259 105.43C92.035 105.43 91.4729 106.033 91.4729 106.803C91.4729 107.573 92.035 108.177 92.8259 108.177ZM91.6811 120H93.9707V110.009H91.6811V120ZM97.7461 120H100.036V112.09H102.429V110.009H100.036V105.846H97.7461V110.009H95.3523V112.09H97.7461V120ZM104.031 124.163H106.57L108.423 120.104L113.064 110.009H110.525L107.819 116.524L105.259 110.009H102.74L106.529 119.001L104.031 124.163ZM50.3902 148H52.0554L57.9877 133.43H55.4274L51.2436 144.066L47.1014 133.43H44.4996L50.3902 148ZM62.1004 148.208C63.6615 148.208 65.0978 147.625 66.0761 146.481L64.619 145.003C64.0154 145.71 63.0995 146.064 62.0796 146.064C60.5809 146.064 59.4985 145.232 59.1655 143.858H66.6173C66.7005 143.442 66.7422 143.108 66.7422 142.775C66.7422 139.903 64.7439 137.801 61.9755 137.801C59.0822 137.801 56.8134 140.069 56.8134 143.004C56.8134 145.981 59.1031 148.208 62.1004 148.208ZM61.9339 139.903C63.3285 139.903 64.2027 140.652 64.4941 141.984H59.1655C59.4985 140.694 60.5185 139.903 61.9339 139.903ZM68.2654 148H70.555V142.442C70.555 140.736 71.4709 139.945 72.7614 139.945C73.3442 139.945 73.7605 140.111 74.1352 140.486L75.6339 138.945C74.947 138.155 74.156 137.801 73.1569 137.801C71.9913 137.801 71.117 138.259 70.555 139.05V138.009H68.2654V148ZM77.5952 136.177C78.3862 136.177 78.9482 135.573 78.9482 134.803C78.9482 134.033 78.3862 133.43 77.5952 133.43C76.8042 133.43 76.2422 134.033 76.2422 134.803C76.2422 135.573 76.8042 136.177 77.5952 136.177ZM76.4504 148H78.74V138.009H76.4504V148ZM82.3696 148H84.6593V140.09H88.406V148H90.6956V138.009H84.6593V136.26C84.6593 135.469 85.0964 134.949 85.9082 134.949C86.3245 134.949 86.6367 135.074 86.9073 135.303L88.406 133.804C87.7191 133.159 86.9489 132.805 85.9082 132.805C83.8059 132.805 82.3696 134.304 82.3696 136.281V138.009H79.9759V140.09H82.3696V148ZM89.5508 137.135C90.3418 137.135 90.9038 136.531 90.9038 135.761C90.9038 134.991 90.3418 134.387 89.5508 134.387C88.7598 134.387 88.1978 134.991 88.1978 135.761C88.1978 136.531 88.7598 137.135 89.5508 137.135ZM97.5826 148.208C99.1438 148.208 100.58 147.625 101.558 146.481L100.101 145.003C99.4976 145.71 98.5817 146.064 97.5618 146.064C96.0631 146.064 94.9808 145.232 94.6477 143.858H102.099C102.183 143.442 102.224 143.108 102.224 142.775C102.224 139.903 100.226 137.801 97.4577 137.801C94.5645 137.801 92.2956 140.069 92.2956 143.004C92.2956 145.981 94.5853 148.208 97.5826 148.208ZM97.4161 139.903C98.8107 139.903 99.6849 140.652 99.9764 141.984H94.6477C94.9808 140.694 96.0007 139.903 97.4161 139.903ZM107.931 148.208C109.201 148.208 110.284 147.729 110.991 146.918V148H113.281V133.013H110.991V139.112C110.284 138.3 109.201 137.801 107.931 137.801C105.225 137.801 103.123 140.09 103.123 143.025C103.123 145.939 105.225 148.208 107.931 148.208ZM108.306 146.043C106.641 146.043 105.475 144.794 105.475 143.004C105.475 141.214 106.641 139.965 108.306 139.965C109.992 139.965 111.137 141.214 111.137 143.004C111.137 144.794 109.992 146.043 108.306 146.043Z" fill="#121F3E"/>
<rect x="0.75" y="0.75" width="160.5" height="168.5" rx="31.25" stroke="url(#paint3_linear_946_2473)" stroke-opacity="0.2" stroke-width="1.5"/>
<defs>
<filter id="filter0_d_946_2473" x="30.4211" y="12.4211" width="101.158" height="101.158" filterUnits="userSpaceOnUse" color-interpolation-filters="sRGB">
<feFlood flood-opacity="0" result="BackgroundImageFix"/>
<feColorMatrix in="SourceAlpha" type="matrix" values="0 0 0 0 0 0 0 0 0 0 0 0 0 0 0 0 0 0 127 0" result="hardAlpha"/>
<feMorphology radius="4.42105" operator="erode" in="SourceAlpha" result="effect1_dropShadow_946_2473"/>
<feOffset dy="12"/>
<feGaussianBlur stdDeviation="10"/>
<feComposite in2="hardAlpha" operator="out"/>
<feColorMatrix type="matrix" values="0 0 0 0 0.211765 0 0 0 0 0.811765 0 0 0 0 0.462745 0 0 0 0.4 0"/>
<feBlend mode="normal" in2="BackgroundImageFix" result="effect1_dropShadow_946_2473"/>
<feBlend mode="normal" in="SourceGraphic" in2="effect1_dropShadow_946_2473" result="shape"/>
</filter>
<filter id="filter1_ii_946_2473" x="47.4727" y="15.3628" width="66.9922" height="73.3266" filterUnits="userSpaceOnUse" color-interpolation-filters="sRGB">
<feFlood flood-opacity="0" result="BackgroundImageFix"/>
<feBlend mode="normal" in="SourceGraphic" in2="BackgroundImageFix" result="shape"/>
<feColorMatrix in="SourceAlpha" type="matrix" values="0 0 0 0 0 0 0 0 0 0 0 0 0 0 0 0 0 0 127 0" result="hardAlpha"/>
<feOffset dy="6.33309"/>
<feGaussianBlur stdDeviation="2.11103"/>
<feComposite in2="hardAlpha" operator="arithmetic" k2="-1" k3="1"/>
<feColorMatrix type="matrix" values="0 0 0 0 1 0 0 0 0 1 0 0 0 0 1 0 0 0 0.25 0"/>
<feBlend mode="normal" in2="shape" result="effect1_innerShadow_946_2473"/>
<feColorMatrix in="SourceAlpha" type="matrix" values="0 0 0 0 0 0 0 0 0 0 0 0 0 0 0 0 0 0 127 0" result="hardAlpha"/>
<feOffset dy="-2.11103"/>
<feGaussianBlur stdDeviation="2.11103"/>
<feComposite in2="hardAlpha" operator="arithmetic" k2="-1" k3="1"/>
<feColorMatrix type="matrix" values="0 0 0 0 0.09375 0 0 0 0 0.5625 0 0 0 0 0.291667 0 0 0 1 0"/>
<feBlend mode="normal" in2="effect1_innerShadow_946_2473" result="effect2_innerShadow_946_2473"/>
</filter>
<filter id="filter2_di_946_2473" x="58.4621" y="33.6725" width="44.8765" height="44.4061" filterUnits="userSpaceOnUse" color-interpolation-filters="sRGB">
<feFlood flood-opacity="0" result="BackgroundImageFix"/>
<feColorMatrix in="SourceAlpha" type="matrix" values="0 0 0 0 0 0 0 0 0 0 0 0 0 0 0 0 0 0 127 0" result="hardAlpha"/>
<feOffset dy="4.22206"/>
<feGaussianBlur stdDeviation="4.22206"/>
<feComposite in2="hardAlpha" operator="out"/>
<feColorMatrix type="matrix" values="0 0 0 0 0 0 0 0 0 0 0 0 0 0 0 0 0 0 0.17 0"/>
<feBlend mode="normal" in2="BackgroundImageFix" result="effect1_dropShadow_946_2473"/>
<feBlend mode="normal" in="SourceGraphic" in2="effect1_dropShadow_946_2473" result="shape"/>
<feColorMatrix in="SourceAlpha" type="matrix" values="0 0 0 0 0 0 0 0 0 0 0 0 0 0 0 0 0 0 127 0" result="hardAlpha"/>
<feOffset dy="-2.11103"/>
<feGaussianBlur stdDeviation="1.05551"/>
<feComposite in2="hardAlpha" operator="arithmetic" k2="-1" k3="1"/>
<feColorMatrix type="matrix" values="0 0 0 0 0 0 0 0 0 0 0 0 0 0 0 0 0 0 0.19 0"/>
<feBlend mode="normal" in2="shape" result="effect2_innerShadow_946_2473"/>
</filter>
<linearGradient id="paint0_linear_946_2473" x1="81" y1="0" x2="81" y2="170" gradientUnits="userSpaceOnUse">
<stop stop-color="#F6F7FB"/>
<stop offset="1" stop-color="#F6F7FB" stop-opacity="0.95"/>
</linearGradient>
<linearGradient id="paint1_linear_946_2473" x1="80.9684" y1="17.4739" x2="80.9684" y2="84.4674" gradientUnits="userSpaceOnUse">
<stop stop-color="#36CF76"/>
<stop offset="1" stop-color="#27AE60"/>
</linearGradient>
<linearGradient id="paint2_linear_946_2473" x1="80.9684" y1="17.4739" x2="80.9684" y2="84.4674" gradientUnits="userSpaceOnUse">
<stop stop-color="white"/>
<stop offset="1" stop-color="white" stop-opacity="0"/>
</linearGradient>
<linearGradient id="paint3_linear_946_2473" x1="81" y1="0" x2="81" y2="170" gradientUnits="userSpaceOnUse">
<stop stop-color="#81899B"/>
<stop offset="1" stop-color="#81899B" stop-opacity="0.49"/>
</linearGradient>
</defs>
</svg>
